X:516
T:Rosa das Rosas
Z:Jack Campin, http://www.campin.me.uk/
F:Jack Campin's Nine-Note Tunebook
% last edit 03-02-2013
S:Cantigas de Santa Maria, 13th cent
N:I have known this version for 40 years and don't know where it comes from.
N:It's nothing like any I've seen in print or on record and a long way from
N:the original.  I may have heard Andrea von Ramm singing it like this.
M:6/8
L:1/8
Q:3/8=50
K:DDor
D2C D2E/F/|G2F/E/ D3    |D2C D2F|F3- F2z |
F2G A2A   |G2F/E/ D3    |C2D E2D|D3- D2z |
c2c d2c   |B2A    G/A/F2|G2B A2D|C3  E2z |
D2C D2E/F/|G2F/E/ D3    |C2D E2D|D3- D2z|]

